Numix-Circle/48x48/apps/cs-desktop.svg

<?xml version="1.0" encoding="UTF-8" standalone="no"?>
<svg
   xmlns:dc="http://purl.org/dc/elements/1.1/"
   xmlns:cc="http://creativecommons.org/ns#"
   xmlns:rdf="http://www.w3.org/1999/02/22-rdf-syntax-ns#"
   xmlns:svg="http://www.w3.org/2000/svg"
   xmlns="http://www.w3.org/2000/svg"
   xmlns:xlink="http://www.w3.org/1999/xlink"
   xmlns:sodipodi="http://sodipodi.sourceforge.net/DTD/sodipodi-0.dtd"
   xmlns:inkscape="http://www.inkscape.org/namespaces/inkscape"
   viewBox="0 0 48 48"
   id="svg2"
   version="1.1"
   inkscape:version="0.48.4 r9939"
   width="100%"
   height="100%"
   sodipodi:docname="cs-desktop.svg">
  <metadata
     id="metadata73">
    <rdf:RDF>
      <cc:Work
         rdf:about="">
        <dc:format>image/svg+xml</dc:format>
        <dc:type
           rdf:resource="http://purl.org/dc/dcmitype/StillImage" />
      </cc:Work>
    </rdf:RDF>
  </metadata>
  <sodipodi:namedview
     pagecolor="#ffffff"
     bordercolor="#666666"
     borderopacity="1"
     objecttolerance="10"
     gridtolerance="10"
     guidetolerance="10"
     inkscape:pageopacity="0"
     inkscape:pageshadow="2"
     inkscape:window-width="1280"
     inkscape:window-height="960"
     id="namedview71"
     showgrid="false"
     inkscape:zoom="13.906433"
     inkscape:cx="31.891771"
     inkscape:cy="26.292927"
     inkscape:window-x="0"
     inkscape:window-y="0"
     inkscape:window-maximized="1"
     inkscape:current-layer="svg2" />
  <defs
     id="defs4">
    <linearGradient
       id="linearGradient3764"
       x1="1"
       x2="47"
       gradientUnits="userSpaceOnUse"
       gradientTransform="matrix(0,-1,1,0,-1.5e-6,47.999998)">
      <stop
         stop-color="#579ccd"
         stop-opacity="1"
         id="stop7" />
      <stop
         offset="1"
         stop-color="#67a6d2"
         stop-opacity="1"
         id="stop9" />
    </linearGradient>
    <clipPath
       id="clipPath-716498224">
      <g
         transform="translate(0,-1004.3622)"
         id="g12">
        <path
           d="m -24 13 c 0 1.105 -0.672 2 -1.5 2 -0.828 0 -1.5 -0.895 -1.5 -2 0 -1.105 0.672 -2 1.5 -2 0.828 0 1.5 0.895 1.5 2 z"
           transform="matrix(15.333333,0,0,11.5,414.99999,878.8622)"
           fill="#1890d0"
           id="path14" />
      </g>
    </clipPath>
    <clipPath
       id="clipPath-728199959">
      <g
         transform="translate(0,-1004.3622)"
         id="g17">
        <path
           d="m -24 13 c 0 1.105 -0.672 2 -1.5 2 -0.828 0 -1.5 -0.895 -1.5 -2 0 -1.105 0.672 -2 1.5 -2 0.828 0 1.5 0.895 1.5 2 z"
           transform="matrix(15.333333,0,0,11.5,414.99999,878.8622)"
           fill="#1890d0"
           id="path19" />
      </g>
    </clipPath>
    <linearGradient
       inkscape:collect="always"
       xlink:href="#linearGradient3764"
       id="linearGradient3071"
       gradientUnits="userSpaceOnUse"
       gradientTransform="matrix(0,-1,1,0,-1.5e-6,47.999998)"
       x1="1"
       x2="47" />
    <linearGradient
       inkscape:collect="always"
       xlink:href="#linearGradient3764"
       id="linearGradient3074"
       gradientUnits="userSpaceOnUse"
       gradientTransform="matrix(0,-1,1,0,-1.5e-6,47.999998)"
       x1="1"
       x2="47" />
    <linearGradient
       inkscape:collect="always"
       xlink:href="#linearGradient3764"
       id="linearGradient3117"
       gradientUnits="userSpaceOnUse"
       gradientTransform="matrix(0,-1,1,0,-1.5e-6,47.999998)"
       x1="1"
       x2="47" />
    <linearGradient
       inkscape:collect="always"
       xlink:href="#linearGradient3764"
       id="linearGradient3120"
       gradientUnits="userSpaceOnUse"
       gradientTransform="matrix(0,-1,1,0,-1.5e-6,47.999998)"
       x1="1"
       x2="47" />
    <linearGradient
       inkscape:collect="always"
       xlink:href="#linearGradient3764"
       id="linearGradient3123"
       gradientUnits="userSpaceOnUse"
       gradientTransform="matrix(0,-1,1,0,-1.5e-6,47.999998)"
       x1="1"
       x2="47" />
    <linearGradient
       inkscape:collect="always"
       xlink:href="#linearGradient3764"
       id="linearGradient3126"
       gradientUnits="userSpaceOnUse"
       gradientTransform="matrix(0,-1,1,0,-1.5e-6,47.999998)"
       x1="1"
       x2="47" />
    <linearGradient
       inkscape:collect="always"
       xlink:href="#linearGradient3764"
       id="linearGradient3129"
       gradientUnits="userSpaceOnUse"
       gradientTransform="matrix(0,-1,1,0,-1.5e-6,47.999998)"
       x1="1"
       x2="47" />
  </defs>
  <g
     id="g21">
    <path
       d="m 36.31 5 c 5.859 4.062 9.688 10.831 9.688 18.5 c 0 12.426 -10.07 22.5 -22.5 22.5 c -7.669 0 -14.438 -3.828 -18.5 -9.688 c 1.037 1.822 2.306 3.499 3.781 4.969 c 4.085 3.712 9.514 5.969 15.469 5.969 c 12.703 0 23 -10.298 23 -23 c 0 -5.954 -2.256 -11.384 -5.969 -15.469 c -1.469 -1.475 -3.147 -2.744 -4.969 -3.781 z m 4.969 3.781 c 3.854 4.113 6.219 9.637 6.219 15.719 c 0 12.703 -10.297 23 -23 23 c -6.081 0 -11.606 -2.364 -15.719 -6.219 c 4.16 4.144 9.883 6.719 16.219 6.719 c 12.703 0 23 -10.298 23 -23 c 0 -6.335 -2.575 -12.06 -6.719 -16.219 z"
       opacity="0.05"
       id="path23" />
    <path
       d="m 41.28 8.781 c 3.712 4.085 5.969 9.514 5.969 15.469 c 0 12.703 -10.297 23 -23 23 c -5.954 0 -11.384 -2.256 -15.469 -5.969 c 4.113 3.854 9.637 6.219 15.719 6.219 c 12.703 0 23 -10.298 23 -23 c 0 -6.081 -2.364 -11.606 -6.219 -15.719 z"
       opacity="0.1"
       id="path25" />
    <path
       d="m 31.25 2.375 c 8.615 3.154 14.75 11.417 14.75 21.13 c 0 12.426 -10.07 22.5 -22.5 22.5 c -9.708 0 -17.971 -6.135 -21.12 -14.75 a 23 23 0 0 0 44.875 -7 a 23 23 0 0 0 -16 -21.875 z"
       opacity="0.2"
       id="path27" />
  </g>
  <path
     style="fill:url(#linearGradient3129);fill-opacity:1"
     d="M 21.34375 1.15625 C 20.677609 1.233082 20.022558 1.3362481 19.375 1.46875 C 20.024003 1.3355542 20.67591 1.2332815 21.34375 1.15625 z M 26.65625 1.15625 C 27.32409 1.2332815 27.975997 1.3355542 28.625 1.46875 C 27.977442 1.3362481 27.322391 1.233082 26.65625 1.15625 z M 18.15625 1.75 C 17.776106 1.8495569 17.403449 1.9754948 17.03125 2.09375 C 17.397289 1.9770554 17.782483 1.8485525 18.15625 1.75 z M 29.84375 1.75 C 30.217517 1.8485525 30.602711 1.9770554 30.96875 2.09375 C 30.596551 1.9754948 30.223894 1.8495569 29.84375 1.75 z M 13.84375 3.375 C 13.505855 3.5416292 13.172027 3.7237656 12.84375 3.90625 C 13.173877 3.7222156 13.503895 3.5429837 13.84375 3.375 z M 34.15625 3.375 C 34.496105 3.5429837 34.826123 3.7222156 35.15625 3.90625 C 34.827973 3.7237656 34.494145 3.5416292 34.15625 3.375 z M 11.875 4.46875 C 11.55357 4.6683863 11.2481 4.8789612 10.9375 5.09375 C 11.246671 4.8791826 11.555101 4.6683123 11.875 4.46875 z M 10.9375 5.09375 C 10.624173 5.3104248 10.333029 5.518433 10.03125 5.75 C 10.329194 5.5209504 10.628329 5.3083174 10.9375 5.09375 z M 10.03125 5.75 C 9.4345095 6.2079023 8.861001 6.7057015 8.3125 7.21875 C 8.8604774 6.7058587 9.4353624 6.2080993 10.03125 5.75 z M 36.125 4.46875 C 36.444899 4.6683123 36.753329 4.8791826 37.0625 5.09375 C 36.7519 4.8789612 36.44643 4.6683863 36.125 4.46875 z M 37.0625 5.09375 C 37.371671 5.3083174 37.670806 5.5209504 37.96875 5.75 C 37.666971 5.518433 37.375827 5.3104248 37.0625 5.09375 z M 37.96875 5.75 C 38.564638 6.2080993 39.139523 6.7058587 39.6875 7.21875 C 39.138999 6.7057015 38.565491 6.2079023 37.96875 5.75 z M 7.5 8 C 3.4837489 12.140741 1 17.77553 1 24 C 1 36.703 11.297 47 24 47 C 36.703 47 47 36.703 47 24 C 47 17.77553 44.516251 12.140741 40.5 8 L 7.5 8 z "
     id="path31" />
  <g
     id="g33" />
  <path
     style="opacity:0.1;fill:#000000;fill-opacity:1;fill-rule:nonzero;stroke:none"
     inkscape:connector-curvature="0"
     id="path45"
     d="m 8,15 0,-2 6,0 0,4 -6,0 m 0,-2" />
  <path
     style="opacity:0.1;fill:#000000;fill-opacity:1;fill-rule:nonzero;stroke:none"
     inkscape:connector-curvature="0"
     id="path47"
     d="m 8,21 0,-2 6,0 0,4 -6,0 m 0,-2" />
  <path
     style="opacity:0.1;fill:#000000;fill-opacity:1;fill-rule:nonzero;stroke:none"
     inkscape:connector-curvature="0"
     id="path49"
     d="m 8,27 0,-2 6,0 0,4 -6,0 m 0,-2" />
  <path
     style="opacity:0.1;fill:#000000;fill-opacity:1;fill-rule:nonzero;stroke:none"
     d="M 20.4375 1.28125 C 20.045674 1.3421907 19.66628 1.4195389 19.28125 1.5 C 19.662245 1.4201123 20.049777 1.34195 20.4375 1.28125 z M 27.5625 1.28125 C 27.950223 1.34195 28.337755 1.4201123 28.71875 1.5 C 28.33372 1.4195389 27.954326 1.3421907 27.5625 1.28125 z M 12.84375 3.90625 C 12.516487 4.0882882 12.192202 4.2714604 11.875 4.46875 C 12.194899 4.2691877 12.513623 4.0902844 12.84375 3.90625 z M 11.875 4.46875 C 11.261371 4.8504085 10.66699 5.2514997 10.09375 5.6875 C 10.668115 5.2494024 11.260155 4.8523082 11.875 4.46875 z M 35.15625 3.90625 C 35.486377 4.0902844 35.805101 4.2691877 36.125 4.46875 C 35.807798 4.2714604 35.483513 4.0882882 35.15625 3.90625 z M 36.125 4.46875 C 36.739845 4.8523082 37.331885 5.2494024 37.90625 5.6875 C 37.33301 5.2514997 36.738629 4.8504085 36.125 4.46875 z M 10.03125 5.75 C 9.4302152 6.2107176 8.864615 6.7021869 8.3125 7.21875 C 8.8604774 6.7058587 9.4353624 6.2080993 10.03125 5.75 z M 37.96875 5.75 C 38.564638 6.2080993 39.139523 6.7058587 39.6875 7.21875 C 39.135385 6.7021869 38.569785 6.2107176 37.96875 5.75 z M 7.5 8 C 7.1830423 8.3268412 6.8597401 8.654876 6.5625 9 L 41.4375 9 C 41.14026 8.654876 40.816958 8.3268412 40.5 8 L 7.5 8 z "
     id="path51" />
  <path
     style="fill:#ffffff;fill-opacity:1;fill-rule:nonzero;stroke:none"
     inkscape:connector-curvature="0"
     id="path59"
     d="m 7,14 0,-2 6,0 0,4 -6,0 m 0,-2" />
  <path
     style="fill:#ffffff;fill-opacity:1;fill-rule:nonzero;stroke:none"
     inkscape:connector-curvature="0"
     id="path61"
     d="m 7,20 0,-2 6,0 0,4 -6,0 m 0,-2" />
  <path
     style="fill:#ffffff;fill-opacity:1;fill-rule:nonzero;stroke:none"
     inkscape:connector-curvature="0"
     id="path63"
     d="m 7,26 0,-2 6,0 0,4 -6,0 m 0,-2" />
  <g
     id="g67">
    <path
       d="m 40.03 7.531 c 3.712 4.084 5.969 9.514 5.969 15.469 0 12.703 -10.297 23 -23 23 c -5.954 0 -11.384 -2.256 -15.469 -5.969 4.178 4.291 10.01 6.969 16.469 6.969 c 12.703 0 23 -10.298 23 -23 0 -6.462 -2.677 -12.291 -6.969 -16.469 z"
       opacity="0.1"
       id="path69" />
  </g>
  <path
     id="use3077"
     d="M 24,1 C 17.52147,1 11.68018,3.6902496 7.5,8 l 33,0 C 36.31982,3.6902496 30.47853,1 24,1 z"
     style="fill:#363537;fill-opacity:1;fill-rule:nonzero;stroke:none"
     inkscape:connector-curvature="0" />
</svg>

<svg xmlns="http://www.w3.org/2000/svg" viewBox="0 0 48 48"><defs><clipPath><g transform="translate(0,-1004.3622)"><path d="m -24 13 c 0 1.105 -0.672 2 -1.5 2 -0.828 0 -1.5 -0.895 -1.5 -2 0 -1.105 0.672 -2 1.5 -2 0.828 0 1.5 0.895 1.5 2 z" transform="matrix(15.333333,0,0,11.5,414.99999,878.8622)" fill="#1890d0"/></g></clipPath><clipPath><g transform="translate(0,-1004.3622)"><path d="m -24 13 c 0 1.105 -0.672 2 -1.5 2 -0.828 0 -1.5 -0.895 -1.5 -2 0 -1.105 0.672 -2 1.5 -2 0.828 0 1.5 0.895 1.5 2 z" transform="matrix(15.333333,0,0,11.5,414.99999,878.8622)" fill="#1890d0"/></g></clipPath><linearGradient id="linearGradient3129" gradientUnits="userSpaceOnUse" gradientTransform="matrix(0,-1,1,0,-1.5e-6,47.999998)" x1="1" x2="47"><stop stop-color="#579ccd" stop-opacity="1"/><stop offset="1" stop-color="#67a6d2" stop-opacity="1"/></linearGradient></defs><g><path d="m 36.31 5 c 5.859 4.062 9.688 10.831 9.688 18.5 c 0 12.426 -10.07 22.5 -22.5 22.5 c -7.669 0 -14.438 -3.828 -18.5 -9.688 c 1.037 1.822 2.306 3.499 3.781 4.969 c 4.085 3.712 9.514 5.969 15.469 5.969 c 12.703 0 23 -10.298 23 -23 c 0 -5.954 -2.256 -11.384 -5.969 -15.469 c -1.469 -1.475 -3.147 -2.744 -4.969 -3.781 z m 4.969 3.781 c 3.854 4.113 6.219 9.637 6.219 15.719 c 0 12.703 -10.297 23 -23 23 c -6.081 0 -11.606 -2.364 -15.719 -6.219 c 4.16 4.144 9.883 6.719 16.219 6.719 c 12.703 0 23 -10.298 23 -23 c 0 -6.335 -2.575 -12.06 -6.719 -16.219 z" opacity="0.05"/><path d="m 41.28 8.781 c 3.712 4.085 5.969 9.514 5.969 15.469 c 0 12.703 -10.297 23 -23 23 c -5.954 0 -11.384 -2.256 -15.469 -5.969 c 4.113 3.854 9.637 6.219 15.719 6.219 c 12.703 0 23 -10.298 23 -23 c 0 -6.081 -2.364 -11.606 -6.219 -15.719 z" opacity="0.1"/><path d="m 31.25 2.375 c 8.615 3.154 14.75 11.417 14.75 21.13 c 0 12.426 -10.07 22.5 -22.5 22.5 c -9.708 0 -17.971 -6.135 -21.12 -14.75 a 23 23 0 0 0 44.875 -7 a 23 23 0 0 0 -16 -21.875 z" opacity="0.2"/></g><path d="m 21.344 1.156 c -0.666 0.077 -1.321 0.18 -1.969 0.313 c 0.649 -0.133 1.301 -0.235 1.969 -0.313 z m 5.313 0 c 0.668 0.077 1.32 0.179 1.969 0.313 c -0.648 -0.133 -1.303 -0.236 -1.969 -0.313 z m -8.5 0.594 c -0.38 0.1 -0.753 0.225 -1.125 0.344 c 0.366 -0.117 0.751 -0.245 1.125 -0.344 z m 11.688 0 c 0.374 0.099 0.759 0.227 1.125 0.344 c -0.372 -0.118 -0.745 -0.244 -1.125 -0.344 z m -16 1.625 c -0.338 0.167 -0.672 0.349 -1 0.531 c 0.33 -0.184 0.66 -0.363 1 -0.531 z m 20.313 0 c 0.34 0.168 0.67 0.347 1 0.531 c -0.328 -0.182 -0.662 -0.365 -1 -0.531 z m -22.281 1.094 c -0.321 0.2 -0.627 0.41 -0.938 0.625 c 0.309 -0.215 0.618 -0.425 0.938 -0.625 z m -0.938 0.625 c -0.313 0.217 -0.604 0.425 -0.906 0.656 c 0.298 -0.229 0.597 -0.442 0.906 -0.656 z m -0.906 0.656 c -0.597 0.458 -1.17 0.956 -1.719 1.469 c 0.548 -0.513 1.123 -1.01 1.719 -1.469 z m 26.09 -1.281 c 0.32 0.2 0.628 0.41 0.938 0.625 c -0.311 -0.215 -0.616 -0.425 -0.938 -0.625 z m 0.938 0.625 c 0.309 0.215 0.608 0.427 0.906 0.656 c -0.302 -0.232 -0.593 -0.44 -0.906 -0.656 z m 0.906 0.656 c 0.596 0.458 1.171 0.956 1.719 1.469 c -0.549 -0.513 -1.122 -1.01 -1.719 -1.469 z m -30.469 2.25 c -4.02 4.141 -6.5 9.776 -6.5 16 c 0 12.703 10.297 23 23 23 c 12.703 0 23 -10.297 23 -23 c 0 -6.224 -2.484 -11.859 -6.5 -16 l -33 0 z" fill="url(#linearGradient3129)" fill-opacity="1"/><path d="m 8 15 0 -2 6 0 0 4 -6 0 m 0 -2" opacity="0.1" fill="#000" fill-rule="nonzero" stroke="none" fill-opacity="1"/><path d="m 8 21 0 -2 6 0 0 4 -6 0 m 0 -2" opacity="0.1" fill="#000" fill-rule="nonzero" stroke="none" fill-opacity="1"/><path d="m 8 27 0 -2 6 0 0 4 -6 0 m 0 -2" opacity="0.1" fill="#000" fill-rule="nonzero" stroke="none" fill-opacity="1"/><path d="m 20.438 1.281 c -0.392 0.061 -0.771 0.138 -1.156 0.219 c 0.381 -0.08 0.769 -0.158 1.156 -0.219 z m 7.125 0 c 0.388 0.061 0.775 0.139 1.156 0.219 c -0.385 -0.08 -0.764 -0.158 -1.156 -0.219 z m -14.719 2.625 c -0.327 0.182 -0.652 0.365 -0.969 0.563 c 0.32 -0.2 0.639 -0.378 0.969 -0.563 z m -0.969 0.563 c -0.614 0.382 -1.208 0.783 -1.781 1.219 c 0.574 -0.438 1.166 -0.835 1.781 -1.219 z m 23.281 -0.563 c 0.33 0.184 0.649 0.363 0.969 0.563 c -0.317 -0.197 -0.641 -0.38 -0.969 -0.563 z m 0.969 0.563 c 0.615 0.384 1.207 0.781 1.781 1.219 c -0.573 -0.436 -1.168 -0.837 -1.781 -1.219 z m -26.09 1.281 c -0.601 0.461 -1.167 0.952 -1.719 1.469 c 0.548 -0.513 1.123 -1.01 1.719 -1.469 z m 27.938 0 c 0.596 0.458 1.171 0.956 1.719 1.469 c -0.552 -0.517 -1.118 -1.01 -1.719 -1.469 z m -30.469 2.25 c -0.317 0.327 -0.64 0.655 -0.938 1 l 34.875 0 c -0.297 -0.345 -0.621 -0.673 -0.938 -1 l -33 0 z" opacity="0.1" fill="#000" fill-rule="nonzero" stroke="none" fill-opacity="1"/><path d="m 7 14 0 -2 6 0 0 4 -6 0 m 0 -2" fill="#fff" fill-rule="nonzero" stroke="none" fill-opacity="1"/><path d="m 7 20 0 -2 6 0 0 4 -6 0 m 0 -2" fill="#fff" fill-rule="nonzero" stroke="none" fill-opacity="1"/><path d="m 7 26 0 -2 6 0 0 4 -6 0 m 0 -2" fill="#fff" fill-rule="nonzero" stroke="none" fill-opacity="1"/><g><path d="m 40.03 7.531 c 3.712 4.084 5.969 9.514 5.969 15.469 0 12.703 -10.297 23 -23 23 c -5.954 0 -11.384 -2.256 -15.469 -5.969 4.178 4.291 10.01 6.969 16.469 6.969 c 12.703 0 23 -10.298 23 -23 0 -6.462 -2.677 -12.291 -6.969 -16.469 z" opacity="0.1"/></g><path d="m 24 1 c -6.479 0 -12.32 2.69 -16.5 7 l 33 0 c -4.18 -4.31 -10.02 -7 -16.5 -7 z" fill="#363537" fill-rule="nonzero" stroke="none" fill-opacity="1"/></svg>
